svgs/duotone/circle-waveform-lines.svg

<svg xmlns="http://www.w3.org/2000/svg" viewBox="0 0 512 512"><!-- Font Awesome Pro 6.0.0-alpha2 by @fontawesome - https://fontawesome.com License - https://fontawesome.com/license (Commercial License) --><defs><style>.fa-secondary{opacity:.4}</style></defs><path d="M256 16C123.451 16 16 123.451 16 256S123.451 496 256 496S496 388.549 496 256S388.549 16 256 16ZM160 336C160 344.836 152.836 352 144 352S128 344.836 128 336V176C128 167.162 135.164 160 144 160S160 167.162 160 176V336ZM224 296C224 304.836 216.836 312 208 312S192 304.836 192 296V216C192 207.162 199.164 200 208 200S224 207.162 224 216V296ZM288 360C288 368.836 280.836 376 272 376S256 368.836 256 360V152C256 143.162 263.164 136 272 136S288 143.162 288 152V360ZM352 312C352 320.836 344.836 328 336 328S320 320.836 320 312V200C320 191.162 327.164 184 336 184S352 191.162 352 200V312ZM416 272C416 280.836 408.836 288 400 288S384 280.836 384 272V240C384 231.162 391.164 224 400 224S416 231.162 416 240V272Z" class="fa-secondary"/><path d="M144 160C135.164 160 128 167.162 128 176V336C128 344.836 135.164 352 144 352S160 344.836 160 336V176C160 167.162 152.836 160 144 160ZM272 136C263.164 136 256 143.162 256 152V360C256 368.836 263.164 376 272 376S288 368.836 288 360V152C288 143.162 280.836 136 272 136ZM208 200C199.164 200 192 207.162 192 216V296C192 304.836 199.164 312 208 312S224 304.836 224 296V216C224 207.162 216.836 200 208 200ZM400 224C391.164 224 384 231.162 384 240V272C384 280.836 391.164 288 400 288S416 280.836 416 272V240C416 231.162 408.836 224 400 224ZM336 184C327.164 184 320 191.162 320 200V312C320 320.836 327.164 328 336 328S352 320.836 352 312V200C352 191.162 344.836 184 336 184Z" class="fa-primary"/></svg>

<svg xmlns="http://www.w3.org/2000/svg" viewBox="0 0 512 512"><!--! Font Awesome Pro 6.3.0 by @fontawesome - https://fontawesome.com License - https://fontawesome.com/license (Commercial License) Copyright 2023 Fonticons, Inc. --><defs><style>.fa-secondary{opacity:.4}</style></defs><path class="fa-primary" d="M144 160C135.2 160 128 167.2 128 176v160C128 344.8 135.2 352 144 352S160 344.8 160 336v-160C160 167.2 152.8 160 144 160zM272 136c-8.836 0-16 7.162-16 16v208c0 8.836 7.164 16 16 16s16-7.164 16-16v-208C288 143.2 280.8 136 272 136zM208 200C199.2 200 192 207.2 192 216v80c0 8.836 7.164 16 16 16S224 304.8 224 296v-80C224 207.2 216.8 200 208 200zM400 224C391.2 224 384 231.2 384 240v32C384 280.8 391.2 288 400 288S416 280.8 416 272v-32C416 231.2 408.8 224 400 224zM336 184c-8.836 0-16 7.162-16 16v112c0 8.836 7.164 16 16 16s16-7.164 16-16v-112C352 191.2 344.8 184 336 184z"/><path class="fa-secondary" d="M256 0C114.6 0 0 114.6 0 256s114.6 256 256 256s256-114.6 256-256S397.4 0 256 0zM160 336C160 344.8 152.8 352 144 352S128 344.8 128 336v-160C128 167.2 135.2 160 144 160S160 167.2 160 176V336zM224 296c0 8.836-7.164 16-16 16S192 304.8 192 296v-80c0-8.838 7.164-16 16-16S224 207.2 224 216V296zM288 360c0 8.836-7.164 16-16 16s-16-7.164-16-16v-208c0-8.838 7.164-16 16-16S288 143.2 288 152V360zM352 312c0 8.836-7.164 16-16 16S320 320.8 320 312v-112c0-8.838 7.164-16 16-16S352 191.2 352 200V312zM416 272C416 280.8 408.8 288 400 288S384 280.8 384 272v-32C384 231.2 391.2 224 400 224S416 231.2 416 240V272z"/></svg>
